printer-3d-off.svg

<svg fill="currentColor" viewBox="0 0 24 24"><path d="M2.3 2 1 3.3l1.1 1.1c-.1.2-.1.4-.1.6v6h4V8.3L8.7 11l-2.2 1.1c-.3.2-.5.5-.5.9v5.2c0 .4.2.7.5.9l4.9 2.7c.2.1.4.2.6.2s.4-.1.6-.2l4.5-2.5 3.7 3.7 1.3-1.3zm2.6 0h-.1l5 5H18v4h4V5c0-1.7-1.3-3-3-3zq.15 0 0 0M19 4c.6 0 1 .4 1 1s-.4 1-1 1-1-.4-1-1 .4-1 1-1m-6.6 5.6 5.6 5.6V13c0-.4-.2-.7-.5-.9l-4.9-2.4c-.1 0-.1-.1-.2-.1m-2.2 2.9 2 2-.2.1L9 13zM8 14.7l3 1.6v3l-3-1.6zm5.7 1.3 1.9 1.9-2.6 1.4v-3z"/></svg>

<svg  viewBox="0 0 24 24" fill="currentColor"><path  d="M2.3 2L1 3.3L2.1 4.4C2 4.6 2 4.8 2 5V11H6V8.3L8.7 11L6.5 12.1C6.2 12.3 6 12.6 6 13V18.2C6 18.6 6.2 18.9 6.5 19.1L11.4 21.8C11.6 21.9 11.8 22 12 22S12.4 21.9 12.6 21.8L17.1 19.3L20.8 23L22.1 21.7L2.3 2M4.9 2H4.8L9.8 7H18V11H22V5C22 3.3 20.7 2 19 2H4.9C5 2 5 2 4.9 2M19 4C19.6 4 20 4.4 20 5S19.6 6 19 6 18 5.6 18 5 18.4 4 19 4M12.4 9.6L18 15.2V13C18 12.6 17.8 12.3 17.5 12.1L12.6 9.7C12.5 9.7 12.5 9.6 12.4 9.6M10.2 12.5L12.2 14.5L12 14.6L9 13L10.2 12.5M8 14.7L11 16.3V19.3L8 17.7V14.7M13.7 16L15.6 17.9L13 19.3V16.3L13.7 16Z"/></svg>
